app/assets/v2/images/top-bar/hackathons-symbol.svg

<?xml version="1.0" encoding="UTF-8"?>
<svg width="46px" height="39px" viewBox="0 0 46 39" version="1.1" xmlns="http://www.w3.org/2000/svg" xmlns:xlink="http://www.w3.org/1999/xlink">
    <!-- Generator: Sketch 58 (84663) - https://sketch.com -->
    <title>Group 13</title>
    <desc>Created with Sketch.</desc>
    <g id="Page-1" stroke="none" stroke-width="1" fill="none" fill-rule="evenodd">
        <g id="Group-13" transform="translate(0.000000, 1.000000)">
            <path d="M4.576,31.304 L5.6,31.304 L5.6,37 L4.576,37 L4.576,34.528 L1.656,34.528 L1.656,37 L0.64,37 L0.64,31.304 L1.656,31.304 L1.656,33.688 L4.576,33.688 L4.576,31.304 Z M10.624,32.96 L10.624,37 L9.64,37 L9.64,36.352 C9.51733272,36.5760011 9.34133448,36.750666 9.112,36.876 C8.88266552,37.001334 8.6213348,37.064 8.328,37.064 C7.97599824,37.064 7.66400136,36.9786675 7.392,36.808 C7.11999864,36.6373325 6.90933408,36.3946682 6.76,36.08 C6.61066592,35.7653318 6.536,35.4000021 6.536,34.984 C6.536,34.5679979 6.61199924,34.1986683 6.764,33.876 C6.91600076,33.5533317 7.12799864,33.3026676 7.4,33.124 C7.67200136,32.9453324 7.9813316,32.856 8.328,32.856 C8.6213348,32.856 8.88266552,32.918666 9.112,33.044 C9.34133448,33.169334 9.51733272,33.3439989 9.64,33.568 L9.64,32.96 L10.624,32.96 Z M8.6,36.28 C8.93066832,36.28 9.18666576,36.1653345 9.368,35.936 C9.54933424,35.7066655 9.64,35.3840021 9.64,34.968 C9.64,34.5413312 9.54933424,34.2133345 9.368,33.984 C9.18666576,33.7546655 8.92800168,33.64 8.592,33.64 C8.26133168,33.64 8.00400092,33.7586655 7.82,33.996 C7.63599908,34.2333345 7.544,34.5626646 7.544,34.984 C7.544,35.4000021 7.63599908,35.7199989 7.82,35.944 C8.00400092,36.1680011 8.26399832,36.28 8.6,36.28 Z M13.544,37.064 C13.1226646,37.064 12.7573349,36.9786675 12.448,36.808 C12.1386651,36.6373325 11.9013342,36.3960016 11.736,36.084 C11.5706658,35.7719984 11.488,35.4053354 11.488,34.984 C11.488,34.5626646 11.5746658,34.1920016 11.748,33.872 C11.9213342,33.5519984 12.1666651,33.3026676 12.484,33.124 C12.8013349,32.9453324 13.1679979,32.856 13.584,32.856 C13.8720014,32.856 14.1506653,32.9013329 14.42,32.992 C14.6893347,33.0826671 14.9039992,33.2079992 15.064,33.368 L14.784,34.072 C14.6133325,33.9333326 14.432001,33.8280004 14.24,33.756 C14.047999,33.6839996 13.8586676,33.648 13.672,33.648 C13.3093315,33.648 13.0266677,33.7613322 12.824,33.988 C12.6213323,34.2146678 12.52,34.5413312 12.52,34.968 C12.52,35.3946688 12.619999,35.7199989 12.82,35.944 C13.020001,36.1680011 13.3039982,36.28 13.672,36.28 C13.8586676,36.28 14.047999,36.242667 14.24,36.168 C14.432001,36.093333 14.6133325,35.9866674 14.784,35.848 L15.064,36.552 C14.8933325,36.7120008 14.6720014,36.8373329 14.4,36.928 C14.1279986,37.0186671 13.8426682,37.064 13.544,37.064 Z M19.744,37 L18.496,37 L16.728,35.136 L16.728,37 L15.736,37 L15.736,31.112 L16.728,31.112 L16.728,34.744 L18.392,32.968 L19.6,32.968 L17.784,34.896 L19.744,37 Z M24.008,32.96 L24.008,37 L23.024,37 L23.024,36.352 C22.9013327,36.5760011 22.7253345,36.750666 22.496,36.876 C22.2666655,37.001334 22.0053348,37.064 21.712,37.064 C21.3599982,37.064 21.0480014,36.9786675 20.776,36.808 C20.5039986,36.6373325 20.2933341,36.3946682 20.144,36.08 C19.9946659,35.7653318 19.92,35.4000021 19.92,34.984 C19.92,34.5679979 19.9959992,34.1986683 20.148,33.876 C20.3000008,33.5533317 20.5119986,33.3026676 20.784,33.124 C21.0560014,32.9453324 21.3653316,32.856 21.712,32.856 C22.0053348,32.856 22.2666655,32.918666 22.496,33.044 C22.7253345,33.169334 22.9013327,33.3439989 23.024,33.568 L23.024,32.96 L24.008,32.96 Z M21.984,36.28 C22.3146683,36.28 22.5706658,36.1653345 22.752,35.936 C22.9333342,35.7066655 23.024,35.3840021 23.024,34.968 C23.024,34.5413312 22.9333342,34.2133345 22.752,33.984 C22.5706658,33.7546655 22.3120017,33.64 21.976,33.64 C21.6453317,33.64 21.3880009,33.7586655 21.204,33.996 C21.0199991,34.2333345 20.928,34.5626646 20.928,34.984 C20.928,35.4000021 21.0199991,35.7199989 21.204,35.944 C21.3880009,36.1680011 21.6479983,36.28 21.984,36.28 Z M26.368,33.712 L26.368,35.52 C26.368,35.994669 26.5893311,36.232 27.032,36.232 C27.1546673,36.232 27.2879993,36.2106669 27.432,36.168 L27.432,36.96 C27.2559991,37.0240003 27.0426679,37.056 26.792,37.056 C26.333331,37.056 25.9813346,36.9280013 25.736,36.672 C25.4906654,36.4159987 25.368,36.0480024 25.368,35.568 L25.368,33.712 L24.592,33.712 L24.592,32.96 L25.368,32.96 L25.368,31.976 L26.368,31.64 L26.368,32.96 L27.44,32.96 L27.44,33.712 L26.368,33.712 Z M30.44,32.856 C31.4053382,32.856 31.888,33.4106611 31.888,34.52 L31.888,37 L30.888,37 L30.888,34.568 C30.888,34.2479984 30.8266673,34.0146674 30.704,33.868 C30.5813327,33.7213326 30.3920013,33.648 30.136,33.648 C29.8319985,33.648 29.5866676,33.7453324 29.4,33.94 C29.2133324,34.1346676 29.12,34.3919984 29.12,34.712 L29.12,37 L28.128,37 L28.128,31.112 L29.12,31.112 L29.12,33.544 C29.2586674,33.3253322 29.4426655,33.1560006 29.672,33.036 C29.9013345,32.9159994 30.1573319,32.856 30.44,32.856 Z M34.784,37.064 C34.3733313,37.064 34.0120016,36.9786675 33.7,36.808 C33.3879984,36.6373325 33.1480008,36.3933349 32.98,36.076 C32.8119992,35.7586651 32.728,35.3866688 32.728,34.96 C32.728,34.5333312 32.8119992,34.1613349 32.98,33.844 C33.1480008,33.5266651 33.3879984,33.2826675 33.7,33.112 C34.0120016,32.9413325 34.3733313,32.856 34.784,32.856 C35.1893354,32.856 35.5466651,32.9413325 35.856,33.112 C36.1653349,33.2826675 36.4039992,33.5266651 36.572,33.844 C36.7400008,34.1613349 36.824,34.5333312 36.824,34.96 C36.824,35.3866688 36.7400008,35.7586651 36.572,36.076 C36.4039992,36.3933349 36.1653349,36.6373325 35.856,36.808 C35.5466651,36.9786675 35.1893354,37.064 34.784,37.064 Z M34.776,36.28 C35.117335,36.28 35.3773324,36.1693344 35.556,35.948 C35.7346676,35.7266656 35.824,35.3973355 35.824,34.96 C35.824,34.5279978 35.7333342,34.1986678 35.552,33.972 C35.3706658,33.7453322 35.1146683,33.632 34.784,33.632 C34.4479983,33.632 34.1893342,33.7453322 34.008,33.972 C33.8266658,34.1986678 33.736,34.5279978 33.736,34.96 C33.736,35.3973355 33.8253324,35.7266656 34.004,35.948 C34.1826676,36.1693344 34.4399983,36.28 34.776,36.28 Z M40,32.856 C40.9653382,32.856 41.448,33.4106611 41.448,34.52 L41.448,37 L40.448,37 L40.448,34.568 C40.448,34.2479984 40.3866673,34.0146674 40.264,33.868 C40.1413327,33.7213326 39.9520013,33.648 39.696,33.648 C39.3919985,33.648 39.1466676,33.7453324 38.96,33.94 C38.7733324,34.1346676 38.68,34.3919984 38.68,34.712 L38.68,37 L37.688,37 L37.688,34.104 C37.688,33.6773312 37.6666669,33.2960017 37.624,32.96 L38.56,32.96 L38.632,33.624 C38.7706674,33.3786654 38.9586655,33.189334 39.196,33.056 C39.4333345,32.922666 39.7013318,32.856 40,32.856 Z M43.992,37.064 C43.2613297,37.064 42.6800022,36.893335 42.248,36.552 L42.528,35.848 C42.9600022,36.1680016 43.4533306,36.328 44.008,36.328 C44.248,36.328 44.4333327,36.2880004 44.564,36.208 C44.6946673,36.1279996 44.76,36.0160007 44.76,35.872 C44.76,35.7493327 44.7146671,35.6520004 44.624,35.58 C44.5333329,35.5079996 44.3786678,35.4453336 44.16,35.392 L43.488,35.24 C42.7519963,35.0799992 42.384,34.704003 42.384,34.112 C42.384,33.8666654 42.4533326,33.6493343 42.592,33.46 C42.7306674,33.2706657 42.9253321,33.1226672 43.176,33.016 C43.4266679,32.9093328 43.7173317,32.856 44.048,32.856 C44.3360014,32.856 44.613332,32.8999996 44.88,32.988 C45.146668,33.0760004 45.3813323,33.2026658 45.584,33.368 L45.288,34.048 C44.8826646,33.7493318 44.4666688,33.6 44.04,33.6 C43.8106655,33.6 43.6320006,33.6426662 43.504,33.728 C43.3759994,33.8133338 43.312,33.9306659 43.312,34.08 C43.312,34.1973339 43.3506663,34.2906663 43.428,34.36 C43.5053337,34.4293337 43.6373324,34.4879998 43.824,34.536 L44.512,34.688 C44.912002,34.7786671 45.2039991,34.9186657 45.388,35.108 C45.5720009,35.2973343 45.664,35.5439985 45.664,35.848 C45.664,36.2213352 45.5146682,36.5173322 45.216,36.736 C44.9173318,36.9546678 44.5093359,37.064 43.992,37.064 Z" id="Hackathons" fill="#9894AC" fill-rule="nonzero"></path>
            <rect id="Rectangle" fill="#9D9CB1" x="17.6" y="21.6" width="9.6" height="2.4" rx="1.2"></rect>
            <g id="Group-12" transform="translate(14.000000, 0.000000)" stroke="#9D9CB1" stroke-width="1.68">
                <path d="M8.4,0 C13.0391919,0 16.8,3.7608081 16.8,8.4 C16.8,11.2541739 15.3765003,13.7758717 13.2007323,15.293862 L13.2,18 C13.2,18.6627417 12.6627417,19.2 12,19.2 L4.8,19.2 C4.1372583,19.2 3.6,18.6627417 3.6,18 L3.60027771,15.2945666 C1.42394022,13.7766521 0,11.2546156 0,8.4 C0,3.7608081 3.7608081,0 8.4,0 Z" id="Combined-Shape"></path>
            </g>
            <g id="Group-6" transform="translate(17.600000, 2.400000)" fill="#6D6981">
                <path d="M6.50671841,0.911093931 C6.56090661,0.949799792 6.58678432,1.01709605 6.57248987,1.08213584 L5.57173245,5.63210116 L8.58680875,5.63210116 C8.67866475,5.63210116 8.75312875,5.70656516 8.75312875,5.79842116 C8.75312875,5.83308607 8.74229747,5.8668847 8.7221489,5.8950927 L3.44215448,13.2870849 C3.38876426,13.3618312 3.28488909,13.3791437 3.21014279,13.3257535 C3.15595459,13.2870476 3.13007687,13.2197514 3.14437133,13.1547116 L4.14373245,8.60410116 L1.13005245,8.60474627 C1.03819645,8.60474627 0.963732447,8.53028227 0.963732447,8.43842627 C0.963732447,8.40376136 0.974563727,8.36996273 0.994712296,8.34175474 L6.27470672,0.949762546 C6.32809693,0.875016244 6.4319721,0.857703716 6.50671841,0.911093931 Z" id="Combined-Shape"></path>
            </g>
        </g>
    </g>
</svg>

<svg width="46" height="39" xmlns="http://www.w3.org/2000/svg"><g transform="translate(0 1)" fill="none" fill-rule="evenodd"><path d="M4.576 31.304H5.6V37H4.576v-2.472h-2.92V37H.64v-5.696h1.016v2.384h2.92v-2.384zm6.048 1.656V37H9.64v-.648a1.298 1.298 0 01-.528.524c-.23.125-.49.188-.784.188-.352 0-.664-.085-.936-.256a1.69 1.69 0 01-.632-.728 2.53 2.53 0 01-.224-1.096c0-.416.076-.785.228-1.108.152-.323.364-.573.636-.752.272-.179.581-.268.928-.268.293 0 .555.063.784.188.23.125.405.3.528.524v-.608h.984zM8.6 36.28c.33 0 .587-.115.768-.344.181-.23.272-.552.272-.968 0-.427-.09-.755-.272-.984-.181-.23-.44-.344-.776-.344-.33 0-.588.119-.772.356-.184.237-.276.567-.276.988 0 .416.092.736.276.96.184.224.444.336.78.336zm4.944.784c-.421 0-.787-.085-1.096-.256a1.741 1.741 0 01-.712-.724c-.165-.312-.248-.679-.248-1.1 0-.421.087-.792.26-1.112.173-.32.419-.57.736-.748a2.204 2.204 0 011.1-.268c.288 0 .567.045.836.136.27.09.484.216.644.376l-.28.704a1.942 1.942 0 00-.544-.316 1.61 1.61 0 00-.568-.108c-.363 0-.645.113-.848.34-.203.227-.304.553-.304.98 0 .427.1.752.3.976.2.224.484.336.852.336.187 0 .376-.037.568-.112.192-.075.373-.181.544-.32l.28.704c-.17.16-.392.285-.664.376-.272.09-.557.136-.856.136zm6.2-.064h-1.248l-1.768-1.864V37h-.992v-5.888h.992v3.632l1.664-1.776H19.6l-1.816 1.928L19.744 37zm4.264-4.04V37h-.984v-.648a1.298 1.298 0 01-.528.524c-.23.125-.49.188-.784.188-.352 0-.664-.085-.936-.256a1.69 1.69 0 01-.632-.728 2.53 2.53 0 01-.224-1.096c0-.416.076-.785.228-1.108.152-.323.364-.573.636-.752.272-.179.581-.268.928-.268.293 0 .555.063.784.188.23.125.405.3.528.524v-.608h.984zm-2.024 3.32c.33 0 .587-.115.768-.344.181-.23.272-.552.272-.968 0-.427-.09-.755-.272-.984-.181-.23-.44-.344-.776-.344-.33 0-.588.119-.772.356-.184.237-.276.567-.276.988 0 .416.092.736.276.96.184.224.444.336.78.336zm4.384-2.568v1.808c0 .475.221.712.664.712.123 0 .256-.021.4-.064v.792a1.88 1.88 0 01-.64.096c-.459 0-.81-.128-1.056-.384-.245-.256-.368-.624-.368-1.104v-1.856h-.776v-.752h.776v-.984l1-.336v1.32h1.072v.752h-1.072zm4.072-.856c.965 0 1.448.555 1.448 1.664V37h-1v-2.432c0-.32-.061-.553-.184-.7-.123-.147-.312-.22-.568-.22-.304 0-.55.097-.736.292-.187.195-.28.452-.28.772V37h-.992v-5.888h.992v2.432c.139-.219.323-.388.552-.508.23-.12.485-.18.768-.18zm4.344 4.208c-.41 0-.772-.085-1.084-.256a1.748 1.748 0 01-.72-.732c-.168-.317-.252-.69-.252-1.116 0-.427.084-.799.252-1.116.168-.317.408-.561.72-.732.312-.17.673-.256 1.084-.256.405 0 .763.085 1.072.256.31.17.548.415.716.732.168.317.252.69.252 1.116 0 .427-.084.799-.252 1.116a1.755 1.755 0 01-.716.732c-.31.17-.667.256-1.072.256zm-.008-.784c.341 0 .601-.11.78-.332.179-.221.268-.55.268-.988 0-.432-.09-.761-.272-.988-.181-.227-.437-.34-.768-.34-.336 0-.595.113-.776.34-.181.227-.272.556-.272.988 0 .437.09.767.268.988.179.221.436.332.772.332zM40 32.856c.965 0 1.448.555 1.448 1.664V37h-1v-2.432c0-.32-.061-.553-.184-.7-.123-.147-.312-.22-.568-.22-.304 0-.55.097-.736.292-.187.195-.28.452-.28.772V37h-.992v-2.896a9.16 9.16 0 00-.064-1.144h.936l.072.664c.139-.245.327-.435.564-.568.237-.133.505-.2.804-.2zm3.992 4.208c-.73 0-1.312-.17-1.744-.512l.28-.704c.432.32.925.48 1.48.48.24 0 .425-.04.556-.12a.375.375 0 00.196-.336.353.353 0 00-.136-.292c-.09-.072-.245-.135-.464-.188l-.672-.152c-.736-.16-1.104-.536-1.104-1.128 0-.245.07-.463.208-.652.139-.19.333-.337.584-.444.25-.107.541-.16.872-.16.288 0 .565.044.832.132.267.088.501.215.704.38l-.296.68c-.405-.299-.821-.448-1.248-.448-.23 0-.408.043-.536.128a.401.401 0 00-.192.352c0 .117.039.21.116.28.077.07.21.128.396.176l.688.152c.4.09.692.23.876.42.184.19.276.436.276.74 0 .373-.15.67-.448.888-.299.219-.707.328-1.224.328z" fill="#9894AC" fill-rule="nonzero"/><rect fill="#9D9CB1" x="17.6" y="21.6" width="9.6" height="2.4" rx="1.2"/><path d="M22.4 0a8.4 8.4 0 014.8 15.294V18a1.2 1.2 0 01-1.2 1.2h-7.2a1.2 1.2 0 01-1.2-1.2v-2.705A8.4 8.4 0 0122.4 0z" stroke="#9D9CB1" stroke-width="1.68"/><path d="M24.107 3.311c.054.039.08.106.065.171l-1 4.55h3.015a.166.166 0 01.135.263l-5.28 7.392a.166.166 0 01-.298-.132l1-4.55H18.73a.166.166 0 01-.135-.263l5.28-7.392a.166.166 0 01.232-.039z" fill="#6D6981"/></g></svg>
